!!!OTL: Kaiser der Napoleon
!!!ARE: Europa, Mitteleuropa, Deutschland; France, Elsass
!!!SCT: E0349B
!!!YEM: Copyright 1995, estate of Helmut Schaffrath.
**kern
*ICvox
*Ivox
*M2/4
*k[f#]
*G:
=1
{8d
8g
8g
8g
=2
8f#
8a
4a}
=3
{8a
8a
8a
8a
=4
8b
8dd
4dd}
=5
{8.b
16b
8b
8b
=6
8.dd
16cc
4cc}
=7
{8a
8a
8.dd
16cc
=8
4cc
4b}
==
!!!AGN: historisches Lied, Napoleons russischer Feldzug (1812)
!!!ONB: ESAC (Essen Associative Code) Database: ERK1
!!!AMT: simple duple
!!!AIN: vox
!!!EED: Helmut Schaffrath
!!!EEV: 1.0
*-
